X:1459
T:The Jolly Weaver
M:C|
L:1/8
N:"collected by McFadden"
B:O'Neill's 1459
Z:"Transcribed by Bob Safranek, rjs@gsp.org"
K:C
AAGE  3AcA GE|3AcA GE G2 3EFG|A A2 c BGGB|AddB     dccec|
AAGE  3AcA GE|3AcA GE G2 3EFG|A A2 c BGGB|AdedB  c2 cd||
e e2 d     ef g2|GAGE G2    EG|A A2 c BGGc|AdedB  c2 cd|
3efg ed ef g2|GAGE G2 3EFG|A A2 c BGGc|AdedB c2  z2|]
